X:907
T:Molly from Longford
R:reel
D:Peter Carberry: Traditional Irish Music from County Longford
Z:id:hn-reel-907
M:C|
L:1/8
K:Ador
GE~E2 GEDE | GE~E2 BcBA | GE~E2 GEDB |1 cABG AcBA :|2 cABG A3d ||
K:Amix
cdec d2cd | eAAF GEDd | cdec d2cd | eAAG A3d |
cdec d2cd | eAAF GEDd | Beed Beed | cABc dcBA ||

